!!!COM: Delgadillo, Luis Abraham
!!!CDT: 1887-1961
!!!OTL: National Anthem, Nicaragua
!!!ENC: Davis, Matthew J.
!!Vocal Line Only
**kern
*clefG2
*k[b-e-a-]
*E-:
*M4/4
=1-
1r
=2
2r
4r
8B-
16c
16d
=3
4e-
8.e-
16e-
4f
8.f
16f
=4
4.g
8f
4e-
4r
=5
4b-
4b-
4f
8.f
16f
=6
8.d
16B-
8.d
16f
8b-
8r
16B-
16c
16d
16e-
=7
4f
8.f
16f
4g
8.g
16b-
=8
4.a-
8g
8f
8r
8.g
16f
=9
8.e-
16g
8.b-
16a-
8.g
16b-
8.ee-
16dd
=10
8ee-
8b-
8cc
8dd
8ee-
8dd
8cc
8b-
=11
4a-
8.a-
16b-
8g
8g
8.g
16a-
=12
4f
8.b-
16cc
8b-
8a-
8g
8f
=13
4e-
4r
4r
8.g
16f
=14
8.e-
16g
8.b-
16a-
8.g
16b-
8.ee-
16dd
=15
8ee-
8b-
8cc
8dd
8ee-
8dd
8cc
8a-
=16
4a-
8.a-
16b-
4g
8.g
16a-
=17
4f
8.b-
16cc
8b-
8a-
8g
8f
=18
4e-
16a-
16g
16f
16e-
[2b-
=19
16b-]
16e-
16f
16g
16a-
16g
16
f
16e-
[2b-
=20
8b-]
8dd
8ee-
8dd
8ee-
8dd
8ee-
8dd
=21
4ee-
4r
2r
==|!
*-
